X: 1926
T: Var mı Hâcet Söyleyim...
C: Nikoğos Ağa
O: Turkey
F: http://compmusic.upf.edu/node/140
N: muhayyerkurdi--sarki--duyek--var_mi_hacet--nikogos_aga
N: makam= muhayyerkurdi
N: form= sarki
N: usul= duyek = 8/4
M: 8/4
L: 1/16
K: C _B   
Q: 1/4=120
%%MIDI tuningsystem comma53
a2 a4 g2 ag ^3/4fg a4  | z2 c'4 _2/4ba ag ag ^3/4fe d2  | \
w:  ARANAĞME  |   | 
z2 de ^3/4f2 g2 a2 gf c'2 _3/4ba  | 
w:   | 
a6 ab ag ^3/4fg a4  | z2 c'2 b2 a2 g2 f2 e2 d2  | \
w:   |   | 
de dc d2 e2 c2 dc B2 A2  | 
w:   | 
{B}G2 AB c2 dc BA G2 c2 BA  | A6 dc cB BA AB/c/ d/e/f/g/  | 
w:   |   | 
a2 a4 g2 ag ^3/4fg a4  | z2 c'4 _2/4ba ag ag ^3/4fe d2  | \
w:  ARANAĞME  |   | 
z2 de ^3/4f2 g2 a2 gf c'2 _3/4ba  | 
w:   | 
a6 ab ag ^3/4fg a4  | z2 c'2 b2 a2 g2 f2 e2 d2  | \
w:   |   | 
de dc d2 e2 c2 dc B2 A2  | 
w:   | 
{B}G2 AB c2 dc BA G2 c2 BA  | A6 dc cB BA AB/c/ d/e/f/g/  | 
w:   |   | 
a2 g4 a2 a4 a4  | a2 ga g2 a2 g2 {b}ag fe d2  | \
w:  *  Var  *  mı  hâ  |  *  cet   | 
z2 ga g2 ^3/4f2 g4 a2 {c'}_3/4ba  | 
w:  söy *  *  *  *  le  | 
g2 a4 g2 ag fe d2 a2  | z2 gb a2 g2 fe d2 {g}f{g}e de  | 
w:  yim   |  ey  *  *  *  gül *  *  *  şe  | 
^c2 d4 A2 B3/2A/ B=c AB/c/ d/e/f/g/  | \
w:  nim   SAZ  | 
a2 g4 a2 a4 a4  | a2 ga g2 a2 g2 {b}ag fe d2  | 
w:  *  Var  *  mı  hâ  |  *  cet   | 
z2 ga g2 ^3/4f2 g4 a2 {c'}_3/4ba  | \
w:  söy *  *  *  *  le  | 
g2 a4 g2 ag fe d2 a2  | z2 gb a2 g2 fe d2 {g}f{g}e de  | 
w:  yim   |  ey  *  *  *  gül *  *  *  şe  | 
^c2 d4 ^3/4fg ag fg a4  | z2 g4 a2 a4 a{b}g fe  | \
w:  nim   SAZ  |  Ben  *  ku lu  | 
f2 ba ag2f f_3/4e ed _7/8e3/2d/ c2  | 
w:  *  num   | 
z2 d_7/8e de dc ^3/4fg {a}gf ed c_2/4B  | \
w:  sen  *  *  *  *  *  e  | 
cd c_2/4B c2 d2 c2 dc _7/8B2 A2  | 
w:  fen *  *  *  *  *  dim  | 
z2 AB c2 dc B3/2A/ G2 c2 BA  | A4 z2 ^3/4fg ag fg a4  | 
w:  sin  *  *  *  *  *  *  *  *  be  |  nim   SAZ  | 
z2 g4 a2 a4 a{b}g fe  | f2 ba ag2f f_3/4e ed _7/8e3/2d/ c2  | 
w:  Ben  *  ku lu  |  *  num   | 
z2 d_7/8e de dc ^3/4fg {a}gf ed c_2/4B  | \
w:  sen  *  *  *  *  *  e  | 
cd c_2/4B c2 d2 c2 dc _7/8B2 A2  | 
w:  fen *  *  *  *  *  dim  | 
z2 AB c2 dc B3/2A/ G2 c2 BA  | A4 z2 c'_3/4d' c'_2/4b ab c'4  | 
w:  sin  *  *  *  *  *  *  *  *  be  |  nim   SAZ  | 
z2 c'6 c'3/2_3/4d'/ c'_2/4b c'4  | \
w:  Mer ha *  *  *  met   | 
z2 a4 c'2 _2/4b2 c'b a2 g2  | ^3/4f2 ga g2 f2 g4 a2 b{c'}a  | 
w:  kıl   |  *  gel  *  *  *  *  ba  | 
g2 a4 g2 ag fe d2 a2  | a2 gb a2 g2 fe d2 f3/2e/ de  | 
w:  na   |  *  şuh_ *  *  *  i  *  *  şe  | 
^c2 d4 c'_3/4d' c'_2/4b ab c'4  | \
w:  nim   SAZ  | 
z2 c'6 c'3/2_3/4d'/ c'_2/4b c'4  | \
w:  Mer ha *  *  *  met   | 
z2 a4 c'2 _2/4b2 c'b a2 g2  | 
w:  kıl   | 
^3/4f2 ga g2 f2 g4 a2 b{c'}a  | g2 a4 g2 ag fe d2 a2  | \
w:  *  gel  *  *  *  *  ba  |  na   | 
a2 gb a2 g2 fe d2 f3/2e/ de  | 
w:  *  şuh_ *  *  *  i  *  *  şe  | 
^c2 d4 ^3/4fg ag fg a4  | z2 g4 a2 a4 a{b}g fe  | \
w:  nim   SAZ  |  Ben  *  ku lu  | 
f2 ba ag2f f_3/4e ed _7/8e3/2d/ c2  | 
w:  *  num   | 
z2 d_7/8e de dc ^3/4fg {a}gf ed c_2/4B  | \
w:  sen  *  *  *  *  *  e  | 
cd c_2/4B c2 d2 c2 dc _7/8B2 A2  | 
w:  fen *  *  *  *  *  dim  | 
z2 AB c2 dc B3/2A/ G2 c2 BA  | A4 |
w:  sin  *  *  *  *  *  *  *  *  be  |  nim    | 


